X:141
T:Frolic. (p)1657.PLFD1.141, A
M:6/4
L:1/4
Q:3/4=100
S:Playford, Dancing Master,Supplement to 3rd Ed.,1657
O:England;London
H:1657.
Z:Chris Partington.
K:Bb
G|G2AB>AG|d3c>BA|Bcd(ed2)2|d3-d2:|
|:c|d2cdfB|A3f2^f|(gd2)(ec2)|d3-d2(c/B/)|
CBc(dA2)|(BG2)^F2A|Bcdga^f|g3-g2:|
